libs/ui/packages/crypto-icons/src/svg/MEH.svg

<svg width="24" height="24" viewBox="0 0 24 24" fill="none" xmlns="http://www.w3.org/2000/svg">
<path fill-rule="evenodd" clip-rule="evenodd" d="M8.25293 14.5532C8.25293 14.2771 8.47679 14.0532 8.75293 14.0532H15.504C15.7802 14.0532 16.004 14.2771 16.004 14.5532C16.004 14.8294 15.7802 15.0532 15.504 15.0532H8.75293C8.47679 15.0532 8.25293 14.8294 8.25293 14.5532Z" fill="white"/>
<path fill-rule="evenodd" clip-rule="evenodd" d="M8.25293 9.43848C8.25293 9.16233 8.47679 8.93848 8.75293 8.93848H10.4407C10.7168 8.93848 10.9407 9.16233 10.9407 9.43848C10.9407 9.71462 10.7168 9.93848 10.4407 9.93848H8.75293C8.47679 9.93848 8.25293 9.71462 8.25293 9.43848ZM13.3162 9.43848C13.3162 9.16233 13.5401 8.93848 13.8162 8.93848H15.504C15.7802 8.93848 16.004 9.16233 16.004 9.43848C16.004 9.71462 15.7802 9.93848 15.504 9.93848H13.8162C13.5401 9.93848 13.3162 9.71462 13.3162 9.43848Z" fill="white"/>
<path fill-rule="evenodd" clip-rule="evenodd" d="M3.13867 11.9998C3.13867 7.03472 7.16365 3.00977 12.1287 3.00977C17.0937 3.00977 21.1187 7.03472 21.1187 11.9998C21.1187 16.9648 17.0937 20.9898 12.1287 20.9898C7.16365 20.9898 3.13867 16.9648 3.13867 11.9998ZM12.1287 4.00977C7.71593 4.00977 4.13867 7.587 4.13867 11.9998C4.13867 16.4125 7.71593 19.9898 12.1287 19.9898C16.5414 19.9898 20.1187 16.4125 20.1187 11.9998C20.1187 7.587 16.5414 4.00977 12.1287 4.00977Z" fill="white"/>
</svg>

<svg xmlns="http://www.w3.org/2000/svg" width="24" height="24" viewBox="0 0 24 24" fill="none"><path fill="#fff" fill-rule="evenodd" d="M8.253 14.553a.5.5 0 0 1 .5-.5h6.751a.5.5 0 1 1 0 1H8.753a.5.5 0 0 1-.5-.5m0-5.115a.5.5 0 0 1 .5-.5h1.688a.5.5 0 0 1 0 1H8.753a.5.5 0 0 1-.5-.5m5.063 0a.5.5 0 0 1 .5-.5h1.688a.5.5 0 1 1 0 1h-1.688a.5.5 0 0 1-.5-.5" clip-rule="evenodd"/><path fill="#fff" fill-rule="evenodd" d="M3.139 12a8.99 8.99 0 1 1 17.98 0 8.99 8.99 0 0 1-17.98 0m8.99-7.99a7.99 7.99 0 1 0 0 15.98 7.99 7.99 0 0 0 0-15.98" clip-rule="evenodd"/></svg>
